!!!COM:	Busnoys, Antoine
!!!CDT:	~1430///-1492/11/06
!!!OTL:	A une dame
!!!AGN:	Song; Chanson
!!!SCT:	Bus3006
!!!SCA:	Bus3006
!!!voices:	3
**kern	**kern	**kern
*staff3	*staff2	*staff1
*Ivox	*Ivox	*Ivox
*I"Contratenor	*I"Tenor	*I"Cantus
*I'Ct	*I'T	*I'Cn
*>[A,B,B1,B,B2]	*>[A,B,B1,B,B2]	*>[A,B,B1,B,B2]
*>A	*>A	*>A
*clefGv2	*clefGv2	*clefG2
*k[]	*k[]	*k[]
*M2/1	*M2/1	*M2/1
*met(C)	*met(C)	*met(C)
=1-	=1-	=1-
!!LO:TX:Z=12:t=Virelai
1.A	0A	0r
4G	.	.
4F	.	.
=2	=2	=2
1E	1B	0r
1E	1c	.
=3	=3	=3
1D	1d	0a
1D	1f	.
=4	=4	=4
1G	1e	1b
1A	1e	1cc
=5	=5	=5
1D	1.d	1dd
2r	.	1ff
2D	2B	.
=6	=6	=6
2.A	2.c	2ee
.	.	1ee
4B	4d	.
2c	2e	.
2d	2f	4dd
.	.	4cc
=7	=7	=7
2e	2g	2b
2.f	1a	1a
4d	.	.
2e	2g	[2ee
=8	=8	=8
2c	2a	4ee]
.	.	4dd
2d	2f	1dd
1A	1e	.
.	.	2cc#i
=9	=9	=9
2r	0d	1dd
2.B-i	.	.
.	.	1r
4A	.	.
2G	.	.
=10	=10	=10
2.F	0r	1.ff
4E	.	.
2D	.	.
2C	.	2ee
=11	=11	=11
2D	1.f	1dd
2.F	.	.
.	.	1cc
4G	.	.
2A	2e	.
=12	=12	=12
2F	1d	2dd
2D	.	2.ff
1E	1c	.
.	.	4ee
.	.	[2gg
=13	=13	=13
1D	2d	4gg]
.	.	4ff
.	2.f	4ee
.	.	4dd
1r	.	2cc
.	4e	.
.	[2g	[2ee
=14	=14	=14
0r	4g]	4ee]
.	4f	4dd
.	4e	2ff
.	4d	.
.	2c	1ee
.	4B	.
.	4c	.
=15	=15	=15
1D	2d	2.a
.	2f	.
.	.	4b
2A	2e	2cc
2B	[2d	[2dd
=16	=16	=16
2G	2d]	4dd]
.	.	4cc
2A	2c	2.a
2F	2d	.
.	.	4b-i
2G	2B	4a
.	.	8gL
.	.	8fJ
=17	=17	=17
2.A	2.c	1e
4B	4d	.
2.c	1e	1r
4d	.	.
=18	=18	=18
1e	1A	1.cc
1A	1r	.
.	.	2dd
=19	=19	=19
1r	1c	1ee
1B-	1d	1ff
=20	=20	=20
1c	2e	2ee
.	2g	1ee
1d	1f	.
.	.	2dd
=21	=21	=21
1.A	1.e	1ee
.	.	2cc
[2D	2d	[2dd
=22	=22	=22
1D]	1f	4dd]
.	.	4cc
.	.	4b
.	.	4a
2A	2e	2cc
2B	[2d	[2b
=23	=23	=23
2G	2d]	4b]
.	.	4a
2A	2c	1a
1E	1B	.
.	.	2g#i
=24	=24	=24
2r	1A	[0a
2.F	.	.
.	2r	.
4G	.	.
[2A	[2c	.
=25	=25	=25
4A]	2c]	0a]
4G	.	.
4F	2d	.
4E	.	.
1D	1f	.
=26	=26	=26
1C	2e	2r
.	1e	1cc
1r	.	.
.	2d	2dd
=27	=27	=27
1D	1d	1ff
2.A	1r	[1ee
4B	.	.
=28	=28	=28
2c	1g	2ee]
4B	.	2dd
4c	.	.
[1d	2.f	2.dd
.	4e	4cc
=29	=29	=29
2d]	2f	2a
2G	2g	2b
2A	2e	2cc
[2B-i	[2d	2dd
=30	=30	=30
4B-]	2d]	1ff
4A	.	.
4F	1a	.
4G	.	.
2A	.	1ee
2E	2g	.
=31	=31	=31
2F	2f	2dd
2G	4e	4cc
.	4d	4dd
2E	2c	2ee
2D	[2d	[2ff
=32	=32	=32
2.F	2d]	4ff]
.	.	4ee
.	2f	2.dd
4G	.	.
1A	1e	.
.	.	4cc#i
.	.	4cc#i
.	.	4b
=33	=33	=33
0Dl	0dl	0ddl
!!LO:LB:i:g=z
=34||!|:	=34||!|:	=34||!|:
*>B	*>B	*>B
*clefGv2	*clefGv2	*clefG2
*k[]	*k[]	*k[]
*M2/1	*M2/1	*M2/1
*met(C)	*met(C)	*met(C)
!!section: Les deulz
!!!OMD: Les deulz
1d	1f	1a
2G	1d	2b
2B	.	[2dd
=35	=35	=35
1A	1e	2dd]
.	.	2cc
2.D	1d	2dd
.	.	[2ff
4E	.	.
=36	=36	=36
4F	2r	2ff]
4G	.	.
2A	2c	2ee
2F	2d	2.ff
2D	2f	.
.	.	4ee
=37	=37	=37
1A	2e	2cc
.	2.a	4dd
.	.	4ee
2d	.	2ff
.	4f	.
[2c	[2g	[2ee
=38	=38	=38
4c]	4g]	4ee]
4d	4f	4dd
2B	4e	1dd
.	4d	.
1A	1e	.
.	.	2cc#i
=39	=39	=39
2r	[0d	0dd
2.B-i	.	.
4A	.	.
2F	.	.
=40	=40	=40
2G	1d]	1r
4F	.	.
4E	.	.
2D	1r	1dd
[2G	.	.
=41	=41	=41
2G]	1r	2ee
2F	.	1ff
1D	1d	.
.	.	4ee
.	.	4dd
=42	=42	=42
1A	2e	2.cc
.	1f	.
.	.	4b
2F	.	2a
2G	4e	4g
.	4d	4f
=43	=43	=43
1A	2.c	1e
.	4B	.
2.B-i	2.d	2d
.	.	2f
4A	4c	.
=44	=44	=44
2G	2B	2g
1F	2A	1a
.	1d	.
2D	.	2f
!!LO:REP:start=1
=45	=45	=45
*>B1	*>B1	*>B1
0A	0c	0e
!!LO:REP:end=1
!!LO:REP:start=2
=46:|!	=46:|!	=46:|!
*>B2	*>B2	*>B2
2.A	2.c	2.e
4G	4d	4f
2E	2e	2g
2D	2f	2a
!!LO:REP:open=2
=47	=47	=47
2r	2g	2b
2A	4f	2cc
.	4e	.
4F	2d	2dd
4G	.	.
2E	2c	2ee
=48	=48	=48
1D	2d	2ff
.	2f	4ee
.	.	4dd
1A	1e	2.cc#i
.	.	4b
=49	=49	=49
0Dl	0dl	0ddl
==	==	==
*-	*-	*-
!!!RDF**kern: l=long note in original notation
!!!RDF**kern: i=editorial accidental
!!!ENC:	Chris Gage 02-10-2015
!!!END:	2015/05/01/
!!!EED:	Jesse Rodin
!!!EEV:	2015/05/10/
!!!ONB:	Translated from MusicXML and edited on 2015/05/10/ by Craig Sapp
!!muse2ps: C^@{COM}^i2I150v95,95,150Q16
